X:1
T:Mendon, LM
T:Mendon, LM
T:German tune, arranged by Samuel Dyer, 1828
T:Public Domain Courtesy of the Cyber Hymnal™
C:German tune, arranged by Samuel Dyer, 1828
Z:Public Domain
Z:Courtesy of the Cyber Hymnal™
%%score ( 1 2 ) ( 3 4 )
L:1/8
M:3/4
K:Bb
V:1 treble 
V:2 treble 
V:3 bass 
V:4 bass 
V:1
 [DB]2 [EA]2 [FB]2 | [CF]4 [B,B]2 | [EA]4 [DB]2 | [Fc]6 | [DB]2 [Fd]2 [FB]2 | [EG]4 [Gc]2 | %6
 (B3 c) [FA]2 | [FB]6 | [Fc]2 [Fc]2 [Fc]2 | [Fd]4 [FB]2 | e4 [Fd]2 | [Fc]6 | [DB]2 [Fd]2 [FB]2 | %13
 [EG]4 [Gc]2 | (B3 c) [FA]2 | [FB]6 |] %16
V:2
 x6 | x6 | x6 | x6 | x6 | x6 | F4 x2 | x6 | x6 | x6 | (E3 F) x2 | x6 | x6 | x6 | F4 x2 | x6 |] %16
V:3
 [B,,F,]2 [C,F,]2 [D,B,]2 | A,4 [D,F,]2 | [C,F,]4 [B,,B,]2 | [F,A,]6 | [B,,F,]2 [B,,B,]2 [D,B,]2 | %5
 [E,B,]4 [C,E]2 | (D3 E) [F,C]2 | [B,,D]6 | [F,A,]2 [F,A,]2 [F,A,]2 | B,4 [D,F,]2 | %10
 (G,2 A,2) [B,,B,]2 | [F,A,]6 | [B,,B,]2 [B,,B,]2 [D,B,]2 | [E,B,]4 [C,E]2 | (D3 E) [F,C]2 | %15
 [B,,D]6 |] %16
V:4
 x6 | (F,2 E,2) x2 | x6 | x6 | x6 | x6 | F,4 x2 | x6 | x6 | B,4 x2 | C,4 x2 | x6 | x6 | x6 | %14
 F,4 x2 | x6 |] %16

